media/instagram.svg

<svg width="100" height="100" viewBox="0 0 100 100" fill="none" xmlns="http://www.w3.org/2000/svg">
<path d="M50 100C77.6142 100 100 77.6142 100 50C100 22.3858 77.6142 0 50 0C22.3858 0 0 22.3858 0 50C0 77.6142 22.3858 100 50 100Z" fill="#6C27B3"/>
<path d="M73.1856 25.9613C67.2115 26.7176 60.9826 26.6912 54.7139 26.0944C45.9596 25.4209 33.165 21.3805 28.4512 29.4613C20.8785 42.3981 24.6135 58.9604 26.3781 73.6172L52.694 99.9274C78.1604 98.5752 98.5701 78.1682 99.9266 52.7028L73.1856 25.9613Z" fill="#501A96"/>
<path d="M61.5678 21.3804H38.432C29.0297 21.3804 21.3805 29.0296 21.3805 38.4319V61.5677C21.3805 70.9696 29.0297 78.6194 38.4322 78.6194H61.568C70.9699 78.6194 78.6197 70.97 78.6197 61.5677V38.4319C78.6195 29.0296 70.9701 21.3804 61.5678 21.3804ZM72.8613 61.5679C72.8613 67.805 67.8051 72.8612 61.568 72.8612H38.4322C32.1951 72.8612 27.1389 67.805 27.1389 61.5679V38.4321C27.1389 32.195 32.1951 27.1386 38.4322 27.1386H61.568C67.8051 27.1386 72.8613 32.1952 72.8613 38.4321V61.5679Z" fill="white"/>
<path d="M50 35.1956C41.8371 35.1956 35.1957 41.837 35.1957 49.9999C35.1957 58.1622 41.8371 64.8036 50 64.8036C58.1629 64.8036 64.8037 58.1627 64.8037 49.9999C64.8037 41.837 58.1629 35.1956 50 35.1956ZM50 59.0454C45.0041 59.0454 40.9539 54.9959 40.9539 49.9999C40.9539 45.0038 45.0041 40.9538 50 40.9538C54.9959 40.9538 59.0455 45.0036 59.0455 49.9999C59.0455 54.9958 54.9959 59.0454 50 59.0454Z" fill="white"/>
<path d="M68.3795 35.3072C68.3795 37.2662 66.7912 38.8547 64.832 38.8547C62.873 38.8547 61.2845 37.2662 61.2845 35.3072C61.2845 33.348 62.873 31.7598 64.832 31.7598C66.7916 31.7598 68.3795 33.3477 68.3795 35.3072Z" fill="#D1D1D1"/>
<path d="M61.568 21.3804H49.8879V27.1386H61.568C67.8051 27.1386 72.8613 32.1952 72.8613 38.4321V61.5679C72.8613 67.805 67.8051 72.8612 61.568 72.8612H49.8879V78.6194H61.568C70.9699 78.6194 78.6195 70.97 78.6195 61.5677V38.4319C78.6195 29.0296 70.9701 21.3804 61.568 21.3804Z" fill="#D1D1D1"/>
<path d="M50 35.1956C49.9623 35.1956 49.9256 35.1983 49.8879 35.1983V40.9565C49.9252 40.9561 49.9623 40.9538 50 40.9538C54.9959 40.9538 59.0455 45.0036 59.0455 49.9999C59.0455 54.9958 54.9961 59.0454 50 59.0454C49.9623 59.0454 49.9252 59.043 49.8879 59.0426V64.8008C49.9256 64.8012 49.9623 64.8036 50 64.8036C58.1629 64.8036 64.8037 58.1625 64.8037 49.9999C64.8037 41.837 58.1629 35.1956 50 35.1956Z" fill="#D1D1D1"/>
</svg>

<?xml version="1.0" encoding="utf-8"?>
<!-- Generator: Adobe Illustrator 26.0.0, SVG Export Plug-In . SVG Version: 6.00 Build 0)  -->
<svg version="1.1" id="Capa_1" xmlns="http://www.w3.org/2000/svg" xmlns:xlink="http://www.w3.org/1999/xlink" x="0px" y="0px"
	 viewBox="0 0 100 100" style="enable-background:new 0 0 100 100;" xml:space="preserve">
<style type="text/css">
	.st0{fill:#6C27B3;}
	.st1{fill:#501A96;}
	.st2{fill:#FFFFFF;}
	.st3{fill:#D1D1D1;}
</style>
<path class="st0" d="M50,100c27.6,0,50-22.4,50-50S77.6,0,50,0S0,22.4,0,50S22.4,100,50,100z"/>
<path class="st1" d="M73.2,26c-6,0.8-12.2,0.7-18.5,0.1c-8.8-0.7-21.5-4.7-26.3,3.4c-7.6,12.9-3.8,29.5-2.1,44.2l26.3,26.3
	c25.5-1.4,45.9-21.8,47.2-47.2L73.2,26z"/>
<path class="st2" d="M61.6,21.4H38.4c-9.4,0-17.1,7.6-17.1,17.1v23.1c0,9.4,7.6,17.1,17.1,17.1h23.1c9.4,0,17.1-7.6,17.1-17.1V38.4
	C78.6,29,71,21.4,61.6,21.4z M72.9,61.6c0,6.2-5.1,11.3-11.3,11.3H38.4c-6.2,0-11.3-5.1-11.3-11.3V38.4c0-6.2,5.1-11.3,11.3-11.3
	h23.1c6.2,0,11.3,5.1,11.3,11.3V61.6z"/>
<path class="st2" d="M50,35.2c-8.2,0-14.8,6.6-14.8,14.8c0,8.2,6.6,14.8,14.8,14.8S64.8,58.2,64.8,50C64.8,41.8,58.2,35.2,50,35.2z
	 M50,59c-5,0-9-4-9-9c0-5,4.1-9,9-9s9,4,9,9C59,55,55,59,50,59z"/>
<path class="st3" d="M68.4,35.3c0,2-1.6,3.5-3.5,3.5c-2,0-3.5-1.6-3.5-3.5c0-2,1.6-3.5,3.5-3.5C66.8,31.8,68.4,33.3,68.4,35.3z"/>
<path class="st3" d="M61.6,21.4H49.9v5.8h11.7c6.2,0,11.3,5.1,11.3,11.3v23.1c0,6.2-5.1,11.3-11.3,11.3H49.9v5.8h11.7
	c9.4,0,17.1-7.6,17.1-17.1V38.4C78.6,29,71,21.4,61.6,21.4z"/>
<path class="st3" d="M50,35.2c0,0-0.1,0-0.1,0V41c0,0,0.1,0,0.1,0c5,0,9,4,9,9c0,5-4,9-9,9c0,0-0.1,0-0.1,0v5.8c0,0,0.1,0,0.1,0
	c8.2,0,14.8-6.6,14.8-14.8C64.8,41.8,58.2,35.2,50,35.2z"/>
</svg>
